X:7
T:Congress of Vienna
P:FABCDEABCDE
M:3/4
L:1/4
%P:
%Q:
K:G
%
%%MIDI gchord fcc
%
%
%Pt. A.
P:A
K:C
|: e | "Am" c A e | "Am" c A e | "G" d B G | "E" E2 ^F/^G/ | "Am" A ^G A | "G" B A B | "Am" c/d/ c/B/ c |
"D" A3 | "D" ^f/e/ f/g/ a/f/ | "Am" e/d/ e/=f/ e | "G" d/c/ d/e/ f/d/ | "Am" c/B/ c/d/ c | "E7" B/A/ B/c/ d/B/ | "Am" A2 :|
%
%Pt. B
P:B
K:C
|: G/A/ | "G" B ^c d | "Bm" ^f/e/ d/^c/ B | "D" a ^f d | "Bm" ^f/e/ d/^c/ B | "G" B ^c d |  "Bm" ^f/e/ d/^c/ B | "G" b/a/ g/a/ ^f/d/ | [1 "A" e2 :| [2 "A" e2 e ||
%
%Pt. C
P:C
K:C
| "A" e > d ^c/B/ | "Am" A A A | "Am" c B "Em" E | "Am" B A A | "A" e > d ^c/B/ | "Am" A A A | "Am" c B "Em" E | "Am" A2 z |
"A" e > d ^c/B/ | "Am" A A A |"Am"  c B "Em" E | "Am" (3B/c/B/ A A | "A" e > d ^c/B/ | "Am" B B B | "Am" c B "Em" E | "Am" A2 z | "A" z2 e ||
%
%Pt.D
P:D
K:D
"A" e c c | "A" c e g | "D" g f d | "D" d f a | "A7" a > g e | "A7" c e g | "D" g f d | "A" e e z |
"A" z2 e | "A" e c c | "A" c e g | "D" (3g/f/e/ f d | "D" d f a | "A7" a > g e | "A7" c e g | "D" (3g/f/e/ f d | "A" e e z | z3 ||
%
%Pt. E
P:E
K:C
"A" e > d ^c/B/ | "Am" A A A | "Am" c B "Em" E | "Em" (3B/c/B/ "Am" A A | "A" e > d ^c/B/ | "Am" A A A | "Am" c B "Em" E | "Am" A2 z | z2 |]
%
%Intro
P:F
K:C
z2 e | "Am" c A e | "G" B G e | "F" A F e | "E" E2 ||



%%newpage
%%topmargin 1.2 in
%%bottommargin 1.0 in
%%titlefont Times-Roman 24
%%composerspace 0
%%partsspace 0
%%writehistory 1
%%scale 0.6
%%maxshrink 1
%
%
